X:1
T:The Lord Is My Shepherd, 11.11.11.11
T:The Lord Is My Shepherd, 11.11.11.11
T:Thomas Koschat, 1862
T:Public Domain Courtesy of the Cyber Hymnal™
C:Thomas Koschat, 1862
Z:Public Domain
Z:Courtesy of the Cyber Hymnal™
%%score ( 1 2 ) ( 3 4 )
L:1/8
Q:1/4=110
M:3/4
K:F
V:1 treble 
V:2 treble 
V:3 bass 
V:4 bass 
V:1
 (C/C/) | [FA]2 [EA]2 [DA]2 | [CA]2 [A,F]3 C | A2 A2 A2 | [EB]4- [EB]C | [GB]2 [GB]2 [FB]2 | %6
 [EB]2 [EB]3 [EB] | [EB]2 [FB]2 [GB]2 | B2 z2 FC x | [FA]2 [EA]2 [DA]2 | [CA]2 [A,F]3 C | %11
 [FA]2 [EA]2 [_EA]2 | A2 z2 D[DG]/[DG]/ x | d2 [^Fd]2 [Gd]2 | [^Gd]2 [Ac]3 C | [EB]2 [EA]2 [EG]2 | %16
 F4- FF/F/ | [Fd]2 [^Fd]2 [Gd]2 | [Fd]2 [Fc]3 [FA] | [EB]2 [EA]2 [EG]2 | F4- F |] %21
V:2
 C/C/ | x6 | x6 | FC DC A,F | x6 | x6 | x6 | x6 | F4- A3 | x6 | x6 | x6 | D4- G3 | DE x4 | x6 | %15
 x6 | x6 | x6 | x6 | x6 | F4- F |] %21
V:3
 ([C,C]/[C,C]/) | [F,C]2 [F,C]2 [F,C]2 | [F,C]2 [F,C]3 [F,A,] | [F,C]2 [F,C]2 [F,C]2 | %4
 [G,C]4- [G,C][C,C] | (CD) [C,E]2 [C,D]2 | [C,C]2 [C,G,]3 [C,G,] | (B,C) [C,D]2 [C,E]2 | %8
 D2 z2 F,[C,C] x | [F,C]2 [F,C]2 [F,C]2 | [F,C]2 [F,C]3 [F,A,] | [F,C]2 [F,C]2 [^F,C]2 | %12
 [G,B,]4- [G,B,][G,B,]/[G,B,]/ x | [G,B,]2 [A,C]2 [B,D]2 | [=B,F]2 [CF]3 [C,C] | %15
 [C,D]2 [C,C]2 [^C,B,]2 | [D,A,]4- [D,A,]F,/F,/ | [B,D]2 [A,C]2 [G,B,]2 | [C,A,]2 [C,A,]3 [C,C] | %19
 [C,D]2 [C,C]2 [C,B,]2 | [F,A,]4- [F,A,] |] %21
V:4
 x | x6 | x6 | x6 | x6 | C,2 x4 | x6 | C,2 x4 | F,4- C3 | x6 | x6 | x6 | x7 | x6 | x6 | x6 | x6 | %17
 x6 | x6 | x6 | x5 |] %21

